src/topics/icons/grails.svg

<svg height="175" preserveAspectRatio="xMidYMid" viewBox="0 0 256 175" width="256" xmlns="http://www.w3.org/2000/svg"><path d="m137.78774 173.905895c6.026497-.860877 12.913871-2.582631 16.357738-4.304385 3.443508-1.722112 6.026138-4.304743 6.026138-6.026497 0 0-.860877-1.721754-1.721754-3.443866-1.721753-2.582631-3.443507-6.026498-7.748251-15.496502-1.721753-4.304744-5.617239-15.581585-6.887374-20.662123-1.315727-7.591728-1.435991-15.676001 0-23.244753 1.249313-4.4271614 2.9664-8.706416 6.026498-12.0529942 3.433455-4.542041 7.461411-9.0216164 12.913871-11.1917585 16.974855-6.7574169 37.019501-21.5229993 47.350742-37.8807372 3.443507-6.0264972 5.086641-8.6091279 6.341697-12.0528149 3.105691-8.5196298 5.847357-17.57039684 5.710938-26.68854423v-.86091997h-94.701125-95.5623603v1.72182917c-.1414452 22.55964153 13.1942486 42.89349623 29.2712502 57.68169543 8.6094869 7.748251 18.9403686 13.7747482 30.993363 18.0794917 4.3043845 1.7217538 6.0264973 2.5826306 9.4700051 6.0261382 4.304743 5.1656203 7.748251 11.1921176 9.470364 18.0794915 1.042529 9.950344.262427 20.465751-2.58299 30.132127l-1.721754 5.165621c-.860877 3.443507-3.443866 8.609128-7.7482509 17.218255-4.3047435 8.609487-4.3047435 9.470364-4.3047435 10.331241 1.7217538 5.16562 12.0529944 8.609128 27.5494964 10.330882 3.443867 0 8.609128 0 15.496502-.860877zm-72.3172486-29.27125c6.0264972-.860877 11.1921175-2.582631 12.9138713-5.165621v-.860877l-.8608769-2.58263c-6.0264972-11.192118-9.4703638-20.662123-9.4703638-30.132127 0-5.165621.8612359-7.7482514 2.5829897-12.0529948 2.5826307-4.3047435 3.4435076-5.6940652 7.748251-7.415819 1.7217538-.8806218 3.7762986-1.2130538 4.6371755-1.7414987 2.2501986-.665223 4.8328293-2.0347999 4.8328293-2.0347999s-1.5454858-.332432-3.2873435-1.1933089c-5.1652613-1.7217538-7.0435382-3.1110755-11.3482816-5.6940652-13.7747483-7.748251-22.3838762-15.496502-30.9930041-26.6882606-2.5829896-4.3047434-3.9191797-6.2063552-5.1656203-7.9413919l-.8608769-1.5289719c-.8608769-.8608769-35.29774747-.8608769-36.15862437 0-.58373053 12.0529945 5.19290418 22.6717924 12.91351237 31.8542399 9.0198214 10.7264974 16.3577379 13.7747483 23.245112 15.4965021 6.0264972 1.7217537 6.8873741 2.5826306 9.4700048 6.0264972 1.7221128 4.3043844 2.5829897 6.8873741 2.5829897 12.0526357.8608769 7.74861-1.7221128 15.496861-6.8873742 26.688619-1.7221127 3.443867-3.4438665 6.887374-3.4438665 6.887374 0 .860877 1.7217538 2.58299 3.4438665 3.443867 4.3043845 2.582631 16.357379 4.304384 24.10563 2.582631zm140.3301126 0c6.887375-.860877 11.192118-2.582631 12.052995-5.165621 0-.860877 0-1.721753-2.58299-6.887374-5.416201-10.692033-9.153727-23.39984-6.026497-35.2977473 1.78745-4.8163154 4.085755-9.8351056 9.470364-10.6715706 8.609128-2.5826307 15.496502-6.5466852 24.10563-15.1558131 5.16562-5.1656203 9.971165-13.8802936 11.320638-18.9403685 1.081661-4.056317 2.442263-8.9067372 1.593233-12.9138714-.860877-.8608769-36.158624-.8608769-37.019501 0 0 0-.860877.8608769-1.721754 1.7217538-.861236 2.5829897-4.304743 7.74861-6.887374 10.3312407-3.443867 4.3047434-13.774748 14.6356251-17.218615 17.2182558-6.349595 6.5046824-18.53506 10.8876873-24.966507 13.7747482.860877.8608769 5.165262 3.4438666 8.609128 4.3047435 6.887374 2.5826306 6.887374 2.5826306 9.470005 6.8873741 1.721754 4.3047434 2.58299 6.8873738 2.58299 12.0529948.476031 11.948885-5.616522 23.015353-10.331241 32.714757 6.119478 6.890965 18.972319 6.715415 27.549496 6.026498z" fill="#7ab852"/></svg>

<?xml version="1.0" encoding="UTF-8" standalone="no"?>
<svg width="256px" height="175px" viewBox="0 0 256 175" version="1.1" xmlns="http://www.w3.org/2000/svg" xmlns:xlink="http://www.w3.org/1999/xlink" preserveAspectRatio="xMidYMid">
    <g>
        <path d="M137.78774,173.905895 C143.814237,173.045018 150.701611,171.323264 154.145478,169.60151 C157.588986,167.879398 160.171616,165.296767 160.171616,163.575013 C160.171616,163.575013 159.310739,161.853259 158.449862,160.131147 C156.728109,157.548516 155.006355,154.104649 150.701611,144.634645 C148.979858,140.329901 145.084372,129.05306 143.814237,123.972522 C142.49851,116.380794 142.378246,108.296521 143.814237,100.727769 C145.06355,96.3006076 146.780637,92.021353 149.840735,88.6747748 C153.27419,84.1327338 157.302146,79.6531584 162.754606,77.4830163 C179.729461,70.7255994 199.774107,55.960017 210.105348,39.6022791 C213.548855,33.5757819 215.191989,30.9931512 216.447045,27.5494642 C219.552736,19.0298344 222.294402,9.97906736 222.157983,0.86091997 L222.157983,0 L127.456858,0 L31.8944977,0 L31.8944977,1.72182917 C31.7530525,24.2814707 45.0887463,44.6153254 61.1657479,59.4035246 C69.7752348,67.1517756 80.1061165,73.1782728 92.1591109,77.4830163 C96.4634954,79.2047701 98.1856082,80.0656469 101.629116,83.5091545 C105.933859,88.6747748 109.377367,94.7012721 111.09948,101.588646 C112.142009,111.53899 111.361907,122.054397 108.51649,131.720773 L106.794736,136.886394 C105.933859,140.329901 103.35087,145.495522 99.0464851,154.104649 C94.7417416,162.714136 94.7417416,163.575013 94.7417416,164.43589 C96.4634954,169.60151 106.794736,173.045018 122.291238,174.766772 C125.735105,174.766772 130.900366,174.766772 137.78774,173.905895 L137.78774,173.905895 Z M65.4704914,144.634645 C71.4969886,143.773768 76.6626089,142.052014 78.3843627,139.469024 L78.3843627,138.608147 L77.5234858,136.025517 C71.4969886,124.833399 68.053122,115.363394 68.053122,105.89339 C68.053122,100.727769 68.9143579,98.1451386 70.6361117,93.8403952 C73.2187424,89.5356517 74.0796193,88.14633 78.3843627,86.4245762 C80.1061165,85.5439544 82.1606613,85.2115224 83.0215382,84.6830775 C85.2717368,84.0178545 87.8543675,82.6482776 87.8543675,82.6482776 C87.8543675,82.6482776 86.3088817,82.3158456 84.567024,81.4549687 C79.4017627,79.7332149 77.5234858,78.3438932 73.2187424,75.7609035 C59.4439941,68.0126525 50.8348662,60.2644015 42.2257383,49.0726429 C39.6427487,44.7678995 38.3065586,42.8662877 37.060118,41.131251 L36.1992411,39.6022791 C35.3383642,38.7414022 0.901493625,38.7414022 0.0406167348,39.6022791 C-0.5431138,51.6552736 5.23352091,62.2740715 12.9541291,71.456519 C21.9739505,82.1830164 29.311867,85.2312673 36.1992411,86.9530211 C42.2257383,88.6747748 43.0866152,89.5356517 45.6692459,92.9795183 C47.3913587,97.2839027 48.2522356,99.8668924 48.2522356,105.032154 C49.1131125,112.780764 46.5301228,120.529015 41.3648614,131.720773 C39.6427487,135.16464 37.9209949,138.608147 37.9209949,138.608147 C37.9209949,139.469024 39.6427487,141.191137 41.3648614,142.052014 C45.6692459,144.634645 57.7222404,146.356398 65.4704914,144.634645 L65.4704914,144.634645 Z M205.800604,144.634645 C212.687979,143.773768 216.992722,142.052014 217.853599,139.469024 C217.853599,138.608147 217.853599,137.747271 215.270609,132.58165 C209.854408,121.889617 206.116882,109.18181 209.244112,97.2839027 C211.031562,92.4675873 213.329867,87.4487971 218.714476,86.6123321 C227.323604,84.0297014 234.210978,80.0656469 242.820106,71.456519 C247.985726,66.2908987 252.791271,57.5762254 254.140744,52.5161505 C255.222405,48.4598335 256.583007,43.6094133 255.733977,39.6022791 C254.8731,38.7414022 219.575353,38.7414022 218.714476,39.6022791 C218.714476,39.6022791 217.853599,40.463156 216.992722,41.3240329 C216.131486,43.9070226 212.687979,49.0726429 210.105348,51.6552736 C206.661481,55.960017 196.3306,66.2908987 192.886733,68.8735294 C186.537138,75.3782118 174.351673,79.7612167 167.920226,82.6482776 C168.781103,83.5091545 173.085488,86.0921442 176.529354,86.9530211 C183.416728,89.5356517 183.416728,89.5356517 185.999359,93.8403952 C187.721113,98.1451386 188.582349,100.727769 188.582349,105.89339 C189.05838,117.842275 182.965827,128.908743 178.251108,138.608147 C184.370586,145.499112 197.223427,145.323562 205.800604,144.634645 L205.800604,144.634645 Z" fill="#7AB852"></path>
    </g>
</svg>
